svg/Filled/calendar-number_filled.svg

<svg viewBox="0 0 24 24" xmlns="http://www.w3.org/2000/svg" width="24" height="24"><path fill-rule="evenodd" d="M20.56 8.4c.42 0 .76.34.76.76v7.14a4.75 4.75 0 0 1-4.75 4.75H7.43a4.75 4.75 0 0 1-4.75-4.75V9.16c0-.42.34-.76.76-.76zm-11 1.8c-1.25 0-2.05.57-2.36 1.26q-.12.23-.11.47c0 .36.2.6.62.6.33 0 .5-.13.66-.46.23-.5.6-.75 1.19-.75.71 0 1.1.38 1.1.95s-.49.97-1.22.97h-.3c-.35 0-.55.22-.55.53s.2.52.56.52h.3c.86 0 1.36.38 1.36 1.07 0 .58-.5 1-1.22 1-.73 0-1.12-.29-1.36-.78q-.21-.4-.63-.39c-.4 0-.65.24-.65.62q0 .22.11.47c.34.69 1.16 1.27 2.5 1.27 1.64 0 2.75-.85 2.75-2.13 0-.97-.68-1.59-1.73-1.68v-.03c.83-.17 1.47-.76 1.47-1.65 0-1.13-1-1.87-2.5-1.87m6.07.04c-.3 0-.54.04-.88.28l-1.4.97q-.33.22-.31.55c0 .31.22.52.51.52a.6.6 0 0 0 .4-.13l1.02-.72H15v5.05c0 .44.3.74.74.74.43 0 .72-.3.72-.74v-5.7c0-.5-.31-.82-.83-.82" clip-rule="evenodd"/><path d="M16.17 1c.41 0 .75.34.75.75v.65h.66a3.74 3.74 0 0 1 3.74 3.75c0 .41-.34.75-.75.75H3.43a.76.76 0 0 1-.75-.75A3.74 3.74 0 0 1 6.42 2.4h.68v-.65a.75.75 0 0 1 1.5 0v.65h6.82v-.65c0-.41.34-.75.75-.75"/></svg>

<svg viewBox="0 0 24 24" xmlns="http://www.w3.org/2000/svg" width="24" height="24"><path fill-rule="evenodd" d="M20.56 8.4c.42 0 .76.34.76.76v7.14a4.75 4.75 0 0 1-4.75 4.75H7.43a4.75 4.75 0 0 1-4.75-4.75V9.16c0-.42.34-.76.76-.76zm-11 1.8c-1.25 0-2.05.57-2.36 1.26q-.12.23-.11.47c0 .36.2.6.62.6.33 0 .5-.13.66-.46.23-.5.6-.75 1.19-.75.71 0 1.1.38 1.1.95s-.49.97-1.22.97h-.3c-.35 0-.55.22-.55.53s.2.52.56.52h.3c.86 0 1.36.38 1.36 1.07 0 .58-.5 1-1.22 1-.73 0-1.12-.29-1.36-.78q-.21-.4-.63-.39c-.4 0-.65.24-.65.62q0 .22.11.47c.34.69 1.16 1.27 2.5 1.27 1.64 0 2.75-.85 2.75-2.13 0-.97-.68-1.59-1.73-1.68v-.03c.83-.17 1.47-.76 1.47-1.65 0-1.13-1-1.87-2.5-1.87M15.62 10.23C15.32 10.23 15.08 10.27 14.74 10.51L13.34 11.48Q13.01 11.7 13.03 12.03C13.03 12.34 13.25 12.55 13.54 12.55A.6 .6 0 0 0 13.94 12.42L15 11.7L15 16.75C15 17.19 15.3 17.49 15.74 17.49C16.17 17.49 16.46 17.19 16.46 16.75L16.46 11.05C16.46 10.55 16.15 10.23 15.63 10.23" clip-rule="evenodd"/><path d="M16.17 1c.41 0 .75.34.75.75v.65h.66a3.74 3.74 0 0 1 3.74 3.75c0 .41-.34.75-.75.75H3.43a.76.76 0 0 1-.75-.75A3.74 3.74 0 0 1 6.42 2.4h.68v-.65a.75.75 0 0 1 1.5 0v.65h6.82v-.65c0-.41.34-.75.75-.75"/></svg>
